X: 426
T: Round Dance
O: Russia
M: 2/4
L: 1/8
Q: 1/4=96
K: EMin
|:B2 B2|AG F2 |G2 FG|B2 A2|G2 G2  |FE ^D2  |E4 |E4  :|
|:E2 E2|^DE F2|BAGF |FE DC|B,2 B,2|B,^C ^D2|E4 | E4 :|



